X:1
T:Marcha Nupcial
T:Marcha Nupcial
T:F. Mendelssohn
%%score 1 2 3 4
L:1/8
M:4/4
K:C
V:1 treble transpose=-14 nm="Saxofone Tenor B" snm="Sax. Tn. B"
V:2 treble transpose=-14 nm="Saxofone Tenor A" snm="Sax. Tn. A"
V:3 treble transpose=-2 nm="Trompete Bb" snm="Tpt. Bb"
V:4 bass nm="Trombone" snm="Trb."
V:1
[K:D] (3DDD | D6 (3DDD | D6 (3DDD | F2 (3FFF F2 (3FFF | A2 (3AAA A2 (3DFA ||"^A" ^G4 G4 | %6
 F4 =G2 E2 | A2 D2 A2 C2 | F2 DF z4 | ^G4 G4 | F4 G2 E2 | A2 D2 A2 C2 | E4 D2 z2 ||"^B" z8 | %14
!f! d2 (3DFA d2 (3ddd |!f! d2 (3DFA d2 (3DFA | a2 (3aaa a2 (3FAd ||"^C" F4 =F3 =F | ^G2 F2 E2 B,2 | %19
 D4 E2 A>E | F2 z2 Adfa |!ff! d'4 c'3 ^g | b2 a2 g2 e2 | d3 c/d/ f2 e>f | (e4 d2) z2 || %25
"^D"!mf! D4 D3 D | A6 A2 | D2 D2 F2 D2 | A6 A2 | D2 A2 F2 D2 | F4 G2 d2 | G2 B2 G2 d2 | %32
 A2!f! A2 ^G2 =G2 ||"^E" ^G4 G4 | F4 =G2 E2 | A2 D2 A2 C2 | F2 DF z4 | ^G4 G4 | F4 G2 E2 | %39
 A2 D2 A2 C2 | (F4 !fermata!D2) z2 |] %41
V:2
[K:D] (3ddd | d6 (3ddd | d6 (3ddd | f2 (3fff f2 (3fff | a2 (3aaa a2 (3dfa || d4 c3 _A | %6
 B2 A2 G2 E2 | A2 F2 A2 G2 | A2 DF Adfa | b4 c'2- c'c' | f4 g2 g2 | a2 f2 a2 g2 | (a4 f2) (3ddd || %13
!f! d2 (3DFA d2 (3ddd | d2 (3FAd f2 (3ddd | f2 (3FAd f2 (3FAd | A2 (3AAA A2 (3Adf || %17
!f! d'4 c'3 ^g | b2 a2 g2 e2 | d3 c/d/ e2 de | f2 DF Adfa | f4 ^e3 e | ^g2 f2 e2 B2 | d4 f2 e>f | %24
 (G4 A2) z2 ||!mf! A4 A2- AA | d2 c2 e2 c2 | A4 d2- d>d | d2 c2 c2 c2 | A4 d2- d>d | f4 a2 a2 | %31
 B2 (B>f) B2 (B>=d) | c2!<(! a2 b2 c'2!<)! || b4 ^g2- gg | c'2 c'2 b2 g2 | d4 c2 (c>e) | A4 Adfa | %37
!ff! d'4 c'3 ^g | c'2 c'2 b2 g2 | d4 d2 d>e | (c4 !fermata!d2) z2 |] %41
V:3
[K:D] z2 | z8 | z8 | z8 | f2 (3fff f2 (3Adf ||!f! d'4 c'3 ^g | b2 a2 g2 e2 | d3 c/d/ e2 de | %8
 f2 DF Adfa | d'4 c'3 ^g | b2 a2 g2 e2 | d3 c/d/ f2 e>f | (e4 d2) (3DDD ||!mf! D6 (3DDD | %14
 D6 (3DDD | F2 (3FFF F2 (3FFF | a2 (3aaa a2 (3dfa || D4 =F4 | F4 G4 | F4 G4 | d2 DF ADFA | D4 =F4 | %22
 F4 G4 | F4 G4- | G4 D2 z2 ||!f! d4 d3 d | f2 e2 c2 A2 | A7/2 d/ d7/2 f/ | f2 e2 c2 A2 | %29
 A7/2 f/ f7/2 a/ | a4 g2 f2 | e2 (^d>f) e2 (B>=d) | c2!<(! a2 b2 c'2!<)! ||!f! d'4 c'3 ^g | %34
 (b2 a2) g2 e2 | d4 e2 (A>e) | f2 (D!<(!F) Adfa!<)! |!ff! d'4 c'3 ^g | b2 a2 g2 e2 | %39
 d3 e/4d/4c/4d/4 f2 (e>f) | (e4 !fermata!d2) z2 |] %41
V:4
 z2 | C,6 (3C,C,C, | C,6 (3C,C,C, | C,2 (3C,C,C, C,2!<(! (3C,C,C, | %4
 C,2 (3C,C,C, C,2 (3C,E,G,!<)! || A,,4 B,,3 B,, | E,4 .F,2 .F,2 | G,3 G,/G,/ G,2 G,2 | C,4 z4 | %9
 A,,4 B,,3 B,, | E,4 .F,2 .F,2 | G,3 G,/G,/ G,2 G,2 | (G,,4 C,2) (3C,C,C, ||!mf! C,6 (3C,C,C, | %14
 C,6 (3C,C,C, | C,2 (3C,C,C, C,2!<(! (3C,C,C, | C,2 (3C,C,C, C,2 (3C,E,G,!<)! || A,,4 B,,3 B,, | %18
 E,4 .F,2 .F,2 | G,3 G,/G,/ G,2 G,2 | C,4 z4 | A,,4 B,,3 B,, | E,4 .F,2 .F,2 | G,3 G,/G,/ G,2 G,2 | %24
 (F,4 C,2) z2 ||!mf! C,4 C,3 C, | G,,4 G,,2 G,,2 | C,7/2 B,,/ A,,7/2 A,,/ | G,,4 G,,2 G,,2 | %29
 C,4 _B,,7/2 B,,/ | A,,4 E,2 C,2 | D,2 D,2 D,2 D,2 | G,2!<(! G,,2 G,,2 G,,2!<)! || A,,4 B,,3 B,, | %34
 E,2 E,2 F,2 D,2 | G,2 E,2 G,2 F,2 | C,2 C,,E,, G,,C,E,G, | A,4 B,3 B, | E,2 E,2 F,2 D,2 | %39
 G,2 E,2 G,2 F,2 | (G,,4 !fermata!C,2) z2 |] %41

